src/icons/solid/users/profile.svg

<svg width="24" height="24" viewBox="0 0 24 24" fill="none" xmlns="http://www.w3.org/2000/svg">
<g clip-path="url(#clip0_4787_858)">
<path d="M9.65918 6.12109C11.2029 6.20139 12.4258 7.51634 12.4258 9.13184C12.5159 10.4574 12.1347 11.7623 11.333 12.7979C11.303 12.9635 11.303 13.14 11.333 13.3057C13.2073 14.0099 14.2904 14.5585 14.7314 15.501C14.9619 15.998 15.1222 16.5162 15.1924 17.0547L15.2119 17.0439C15.262 17.2405 15.2023 17.4474 15.0723 17.582C14.952 17.7373 14.7814 17.831 14.5811 17.8311H4.36719C4.19705 17.8102 4.02693 17.7068 3.92676 17.5518C3.80648 17.4068 3.74604 17.1991 3.78613 17.0127C3.86631 16.4846 4.02665 15.9773 4.24707 15.501C4.68807 14.5585 5.77089 14.0096 7.73535 13.2432C7.64515 13.1914 7.64551 12.8596 7.64551 12.7354C6.87383 11.7101 6.49265 10.4366 6.59277 9.13184C6.59277 7.4644 7.8961 6.11719 9.50977 6.11719L9.65918 6.12109Z" fill="#3C3B44"/>
<path d="M19.1211 10.7988C19.502 10.7988 19.8125 11.1201 19.8125 11.5137C19.8124 11.9071 19.5019 12.2285 19.1211 12.2285H14.7412C14.3605 12.2284 14.0499 11.9071 14.0498 11.5137C14.0498 11.1202 14.3604 10.7989 14.7412 10.7988H19.1211Z" fill="#3C3B44"/>
<path d="M19.3223 7.96094C19.7029 7.96121 20.0137 8.28239 20.0137 8.67578C20.0135 9.06898 19.7028 9.38938 19.3223 9.38965H14.7412C14.3606 9.38956 14.05 9.06909 14.0498 8.67578C14.0498 8.28228 14.3604 7.96103 14.7412 7.96094H19.3223Z" fill="#3C3B44"/>
<path fill-rule="evenodd" clip-rule="evenodd" d="M21.166 3C22.1782 3.0001 23 3.83919 23 4.89551V19.1045C23 20.1505 22.1782 20.9999 21.166 21H2.83398C1.81175 20.9999 1 20.1505 1 19.1045V4.89551C1 3.83918 1.81175 3.0001 2.83398 3H21.166ZM3.28516 4.88477C3.15488 4.87443 3.04502 4.93707 2.96484 5.03027C2.87464 5.11313 2.82422 5.22669 2.82422 5.36133V18.6279C2.82422 18.8868 3.02458 19.1045 3.28516 19.1045H20.7051C20.7312 19.1045 20.752 19.0991 20.7715 19.0938C20.7891 19.0889 20.8063 19.084 20.8252 19.084C21.0156 19.0218 21.166 18.8454 21.166 18.6279V5.36133C21.166 5.12585 21.0048 4.938 20.7969 4.89453L20.7051 4.88477H3.28516Z" fill="#3C3B44"/>
</g>
<defs>
<clipPath id="clip0_4787_858">
<rect width="24" height="24" fill="white"/>
</clipPath>
</defs>
</svg>

<svg xmlns="http://www.w3.org/2000/svg" width="24" height="24" fill="none" viewBox="0 0 24 24"><g fill="currentColor" clip-path="url(#a)"><path d="M9.66 6.121c1.543.08 2.766 1.395 2.766 3.01a5.38 5.38 0 0 1-1.093 3.667c-.03.165-.03.342 0 .508 1.874.704 2.957 1.253 3.398 2.195.23.497.391 1.015.461 1.554l.02-.011a.58.58 0 0 1-.14.538.61.61 0 0 1-.49.25H4.366a.63.63 0 0 1-.44-.28.66.66 0 0 1-.14-.54c.08-.527.24-1.035.46-1.511.441-.942 1.524-1.491 3.488-2.258-.09-.052-.09-.383-.09-.508a5.3 5.3 0 0 1-1.052-3.603c0-1.668 1.303-3.015 2.917-3.015zm9.461 4.678c.381 0 .692.321.692.715s-.311.715-.692.715h-4.38a.705.705 0 0 1-.691-.715c0-.394.31-.715.691-.715zm.201-2.839c.38.001.692.322.692.716s-.311.713-.692.714h-4.58a.705.705 0 0 1-.692-.714c0-.394.31-.715.691-.715z"/><path fill-rule="evenodd" d="M21.166 3C22.178 3 23 3.84 23 4.896v14.209C23 20.15 22.178 21 21.166 21H2.834C1.812 21 1 20.15 1 19.105V4.895C1 3.84 1.812 3 2.834 3zM3.286 4.885a.38.38 0 0 0-.321.145.44.44 0 0 0-.14.331v13.267c0 .259.2.477.46.477h17.42a.2.2 0 0 0 .067-.011q.025-.009.053-.01a.49.49 0 0 0 .341-.456V5.36a.47.47 0 0 0-.37-.466l-.09-.01z" clip-rule="evenodd"/></g><defs><clipPath id="a"><path fill="currentColor" d="M0 0h24v24H0z"/></clipPath></defs></svg>
